glitch-avatars-svg/base_avatar/Avatar.fla/placeholder symbols 3/Avatar_sideHandOffside3.svg

<?xml version="1.0" encoding="UTF-8" standalone="no"?>
<!-- Generator: flash2svg, http://dissentgraphics.com/tools/flash2svg -->

<svg
   xmlns:dc="http://purl.org/dc/elements/1.1/"
   xmlns:cc="http://creativecommons.org/ns#"
   xmlns:rdf="http://www.w3.org/1999/02/22-rdf-syntax-ns#"
   xmlns:svg="http://www.w3.org/2000/svg"
   xmlns="http://www.w3.org/2000/svg"
   xmlns:sodipodi="http://sodipodi.sourceforge.net/DTD/sodipodi-0.dtd"
   xmlns:inkscape="http://www.inkscape.org/namespaces/inkscape"
   id="Avatar"
   image-rendering="auto"
   version="1.1"
   x="0px"
   y="0px"
   width="10.12071"
   height="11.2875"
   viewBox="0 0 10.12071 11.2875"
   inkscape:version="0.48.4 r9939"
   sodipodi:docname="Avatar_sideHandOffside3.svg">
  <metadata
     id="metadata3143">
    <rdf:RDF>
      <cc:Work
         rdf:about="">
        <dc:format>image/svg+xml</dc:format>
        <dc:type
           rdf:resource="http://purl.org/dc/dcmitype/StillImage" />
      </cc:Work>
    </rdf:RDF>
  </metadata>
  <sodipodi:namedview
     pagecolor="#ffffff"
     bordercolor="#666666"
     borderopacity="1"
     objecttolerance="10"
     gridtolerance="10"
     guidetolerance="10"
     inkscape:pageopacity="0"
     inkscape:pageshadow="2"
     inkscape:window-width="640"
     inkscape:window-height="480"
     id="namedview3141"
     showgrid="false"
     fit-margin-top="0"
     fit-margin-left="0"
     fit-margin-right="0"
     fit-margin-bottom="0"
     inkscape:zoom="1.8730159"
     inkscape:cx="37.470711"
     inkscape:cy="11.555957"
     inkscape:window-x="0"
     inkscape:window-y="0"
     inkscape:window-maximized="0"
     inkscape:current-layer="Avatar" />
  <defs
     id="defs3125">
    <radialGradient
       gradientUnits="userSpaceOnUse"
       color-interpolation="sRGB"
       r="7.2254839"
       cx="2.5999999"
       cy="2.5"
       fx="2.5999999"
       fy="2.5"
       gradientTransform="matrix(0.55479431,0.8321991,1.0684967,-0.67294312,-1.499,2.05)"
       id="radialGradient">
      <stop
         stop-color="#FFF"
         stop-opacity="0.7058823529411765"
         offset="0"
         id="stop3128" />
      <stop
         stop-color="#FFF"
         stop-opacity="0.2980392156862745"
         offset="1"
         id="stop3130" />
    </radialGradient>
    <radialGradient
       gradientUnits="userSpaceOnUse"
       color-interpolation="sRGB"
       r="7.2270002"
       cx="1.151"
       cy="4.5500002"
       fx="1.151"
       fy="4.5500002"
       gradientTransform="matrix(0.555,0.832,1.068,-0.673,-2.749,4.55)"
       id="radialGradient1">
      <stop
         stop-color="#FFF"
         stop-opacity="0.7058823529411765"
         offset="0"
         id="stop3133" />
      <stop
         stop-color="#FFF"
         stop-opacity="0.2980392156862745"
         offset="1"
         id="stop3135" />
    </radialGradient>
  </defs>
  <g
     id="sideHandOffside4"
     overflow="visible"
     style="overflow:visible"
     transform="translate(3.4707107,1.4875)">
    <g
       id="sideHandOffside3_0">
      <g
         id="element">
        <path
           id="path"
           d="M 4.1,0 C 3.9,-0.45 3.55,-0.75 3.1,-0.95 3,-1 2.9,-1.05 2.75,-1.05 2.1,-1.35 1.5,-1.5 0.9,-1.45 c -0.8,-0.1 -1.55,0 -2.25,0.3 C -2.1,-0.9 -2.65,-0.5 -2.9,0 -3.1,0.25 -3.2,0.5 -3.25,0.8 -3.35,0.95 -3.4,1.35 -3.35,2 l 0,-0.025 -0.05,0.1 0,0.025 c -0.05,-0.05 -0.1,0 -0.05,0.05 l 0,-0.025 0.15,0.05 0,0.025 c 0.1,0.75 0.25,1.5 0.4,2.25 L -2.925,4.425 -3.025,4.575 -3,4.6 c -0.1,0.05 0,0.1 0.25,0.15 L -2.775,4.725 -2.15,6.8 -2.25,6.9 c 0,0.1 0.05,0.15 0.15,0.1 0.15,0.5 0.5,1 0.95,1.5 -0.1,0.05 -0.1,0.15 0.05,0.2 0.2,0.25 0.5,0.5 0.85,0.75 C -0.1,9.5 0,9.6 0.1,9.7 0.25,9.7 0.45,9.75 0.7,9.8 0.85,9.75 1,9.7 1.25,9.7 1.7,9.45 1.85,9.1 1.7,8.6 l 0,-0.025 0.55,0.4 0,0.025 c 0.5,0.35 1,0.4 1.55,0.2 L 3.8,9.175 3.925,9.075 3.95,9.1 C 4.1,8.95 4.3,8.65 4.45,8.2 4.35,7.85 4.25,7.5 4.2,7.15 4.55,7.4 5.05,7.45 5.65,7.35 6,7.2 6.25,7.05 6.5,6.8 6.55,6.65 6.6,6.5 6.65,6.35 6.6,6.15 6.5,5.9 6.45,5.65 6.2,5.2 5.95,4.85 5.7,4.65 l 0,-0.025 -0.25,-0.2 0,-0.075 C 5.4,4.3 5.4,4.3 5.35,4.25 l -0.1,-0.025 0,0.025 C 5.05,4 4.9,3.7 4.85,3.4 l -0.025,0 -0.1,-0.475 0,-0.05 0.175,0 0,0.025 C 5.35,2.8 5.7,2.75 5.95,2.7 6.25,2.55 6.45,2.3 6.5,2.05 6.45,1.9 6.45,1.75 6.5,1.7 6.45,1.4 6.35,1.15 6.1,0.9 5.9,0.65 5.35,0.55 4.4,0.65 l -0.025,0 -0.1,0.05 -0.2,-0.725 M 1.575,-1.15 1.525,-1.2 3.15,-0.8 3,-0.65 3.2,0.175 3.2,0.2 C 2.8,-0.05 2.3,-0.15 1.75,-0.15 1.6,-0.7 1.55,-1.05 1.6,-1.15 z m -1.45,1.05 -0.3,-1.1 0.025,0 c 0.45,-0.1 1,-0.1 1.55,0.05 -0.05,0.1 0,0.45 0.15,1 -0.45,-0.05 -0.95,0 -1.4,0.05 z m 3.75,0.05 0.15,0.6 L 3.475,0.275 3.5,0.3 C 3.3,0.05 3.25,-0.3 3.3,-0.65 c 0.2,0.2 0.4,0.4 0.6,0.6 z m 1.975,0.9 0,0.05 C 6.15,1.3 6.3,1.65 6.3,1.95 6.25,1.6 6,1.45 5.6,1.45 4.95,1.4 4.55,1.3 4.3,1.1 4.85,0.95 5.35,0.85 5.75,0.9 L 5.85,0.85 z M 6,2.35 5.775,2.525 5.8,2.55 C 5.45,2.6 5.15,2.6 4.9,2.65 l -0.325,0.075 -0.15,0 0.05,0.1 L 4.15,3.05 C 3.6,2.55 3.1,2.1 2.7,1.65 L 4.025,1.175 4.575,1.525 4.6,1.55 C 4.75,1.5 5.05,1.5 5.5,1.55 5.95,1.65 6.1,1.9 6,2.25 l 0,0.1 z m 0.375,3.825 -0.15,0 L 6.25,6.2 C 5.75,6.3 5.25,6.3 4.7,6.15 5.1,5.7 5.35,5.2 5.45,4.75 l 0,-0.025 0.1,0.15 0,0.025 C 6,5.05 6.25,5.5 6.4,6.2 z M 3.8,1.05 C 3.4,1.15 3,1.3 2.6,1.45 2.2,0.95 1.95,0.5 1.85,0.1 L 1.825,0.075 3.3,0.425 l 0.475,0.6 z m -3.6,-1 C 0.65,0 1.1,0 1.6,0.05 1.75,0.6 2,1.1 2.35,1.6 L 2.325,1.6 0.975,2.125 1,2.15 C 0.65,1.5 0.4,0.8 0.2,0.05 z M 2.55,1.8 c 0.45,0.55 0.9,1 1.4,1.45 L 2.275,4.175 2.3,4.2 C 1.85,3.65 1.45,3.05 1.1,2.4 L 1.075,2.375 2.525,1.8 z M 0.3,5.15 C -0.1,4.2 -0.4,3.5 -0.55,3 L -0.575,3 0.825,2.425 2.025,4.2 0.3,5.15 z M 2.2,4.4 c 0.55,0.8 1.25,1.4 2.05,1.8 l -0.625,0.375 -0.3,-0.25 0.2,0.3 -1.575,0.85 0,0.025 C 1.35,6.95 0.85,6.25 0.4,5.4 l 1.775,-1 z m 2.375,-0.9 -0.35,-0.25 0.3,-0.175 0,0.375 0.05,0.05 z M 4.75,3.75 C 4.85,4.05 5,4.3 5.2,4.55 5.2,5.1 4.95,5.6 4.45,6.05 3.7,5.7 3.05,5.1 2.45,4.35 L 2.425,4.325 4.05,3.375 4.675,3.75 l 0.05,0 z M 4.5,6.3 C 5.1,6.5 5.7,6.55 6.35,6.4 L 6.325,6.375 6.275,6.625 6.3,6.65 C 6.15,6.9 5.85,7.1 5.4,7.15 4.75,7.2 4.3,7.1 4,6.75 L 3.975,6.725 3.925,6.725 4.5,6.3 z M 3.7,6.85 C 3.95,7.3 4.1,7.75 4.1,8.2 4.05,8.45 3.95,8.7 3.8,8.85 3.05,8.45 2.55,8.05 2.2,7.7 l 0,-0.025 1.425,-0.85 0.05,0 z M 0.1,8.3 C -0.15,7.95 -0.55,7.25 -1.05,6.3 L -1.075,6.3 0.2,5.55 c 0.35,0.7 0.9,1.4 1.6,2.1 l 0,-0.025 -0.5,0.2 -0.05,-0.1 0,0.1 0,0.025 C 0.55,8.05 0.15,8.2 0.1,8.3 z M 1.9,7.85 C 2.35,8.2 2.9,8.6 3.65,9 3.25,9.15 2.8,9.1 2.35,8.85 2.05,8.6 1.8,8.35 1.55,8.1 l 0,-0.025 0,-0.1 0.35,-0.15 z M 1.35,8.225 1.4,8.575 1.4,8.6 C 1.45,8.85 1.45,9 1.45,9.1 0.95,9 0.55,8.8 0.3,8.45 0.55,8.35 0.9,8.25 1.35,8.1 l 0,-0.025 0,0.15 z M 1,9.5 C 0.7,9.65 0.35,9.55 -0.05,9.3 L -0.775,8.6 0.05,8.5 C 0.4,8.95 0.8,9.25 1.2,9.4 L 1,9.5 z M -0.1,-0.05 C -0.4,-0.1 -0.75,0 -1.15,0.25 l 0,-0.025 -0.35,-1.1 0.25,-0.125 0.775,-0.2 0.35,1.125 z m -1.55,-0.675 0.25,1.15 -0.925,0.5 0,-1.225 0.675,-0.425 z m 0.3,1.275 c 0.05,0.5 0.25,1.25 0.55,2.3 l -0.025,0 L -2.05,3.6 C -2.25,2.75 -2.35,1.95 -2.35,1.3 L -2.375,1.275 -1.35,0.525 z m 1.275,-0.375 0.8,2.05 -1.35,0.475 -0.525,-2.175 0,0.025 C -0.7,0.3 -0.35,0.15 -0.05,0.2 z M -3,0.8 c 0.05,-0.35 0.2,-0.6 0.45,-0.85 l -0.025,-0.025 0,1.225 -0.5,0.55 0.025,0 C -3.1,1.2 -3.1,0.9 -3,0.8 z m 0.45,0.65 C -2.5,2.05 -2.4,2.8 -2.2,3.7 l -0.475,0.55 -0.35,-2.2 0.45,-0.6 z m 1.8,1.65 c 0.35,1 0.6,1.75 0.8,2.2 l -1.175,0.8 -0.25,-0.6 0.025,0 C -1.6,4.95 -1.85,4.4 -2,3.8 -1.65,3.55 -1.25,3.3 -0.75,3.1 z m -0.725,2.85 0.15,0.3 L -1.95,6.65 -2.575,4.55 -2.2,4 c 0.25,0.75 0.5,1.4 0.75,1.95 z M -1,8.45 C -1.5,7.75 -1.8,7.2 -1.9,6.85 l 0.675,-0.45 0.025,0 c 0.35,0.8 0.7,1.45 1.05,1.95 l -0.875,0.1 z"
           inkscape:connector-curvature="0"
           style="fill:url(#radialGradient1)" />
      </g>
    </g>
  </g>
</svg>

<?xml version="1.0" encoding="utf-8"?>
<!-- Generator: flash2svg, http://dissentgraphics.com/tools/flash2svg -->
<svg xmlns:xlink="http://www.w3.org/1999/xlink" id="Avatar" image-rendering="auto" baseProfile="basic" version="1.1" x="0px" y="0px" width="68" height="126" xmlns="http://www.w3.org/2000/svg" viewBox="0 0 68 126">
  <defs>
    <radialGradient gradientUnits="userSpaceOnUse" color-interpolation="sRGB" r="7.225483823868139" cx="2.6" cy="2.5" fx="2.5999999999999996" fy="2.5" gradientTransform="matrix(0.5547943115234375 0.8321990966796875 1.0684967041015625 -0.672943115234375 -1.499 2.05)" id="radialGradient">
      <stop stop-color="#FFF" stop-opacity="0.7058823529411765" offset="0"/>
      <stop stop-color="#FFF" stop-opacity="0.2980392156862745" offset="1"/>
    </radialGradient>
    <radialGradient gradientUnits="userSpaceOnUse" color-interpolation="sRGB" r="7.227" cx="1.151" cy="4.55" fx="1.151" fy="4.55" gradientTransform="matrix(0.555 0.832 1.068 -0.673 -2.749 4.55)" id="radialGradient1">
      <stop stop-color="#FFF" stop-opacity="0.7058823529411765" offset="0"/>
      <stop stop-color="#FFF" stop-opacity="0.2980392156862745" offset="1"/>
    </radialGradient>
  </defs>
  <g id="sideHandOffside4" overflow="visible">
    <g id="sideHandOffside3_0">
      <g id="element">
        <path id="path" fill="url(#radialGradient1)" d="M4.1,0 C3.9,-0.45 3.55,-0.75 3.1,-0.95 3,-1 2.9,-1.05 2.75,-1.05 2.1,-1.35 1.5,-1.5 0.9,-1.45 0.1,-1.55 -0.65,-1.45 -1.35,-1.15 -2.1,-0.9 -2.65,-0.5 -2.9,0 -3.1,0.25 -3.2,0.5 -3.25,0.8 -3.35,0.95 -3.4,1.35 -3.35,2 L-3.35,1.975 L-3.4,2.075 L-3.4,2.1 C-3.45,2.05 -3.5,2.1 -3.45,2.15 L-3.45,2.125 L-3.3,2.175 L-3.3,2.2 C-3.2,2.95 -3.05,3.7 -2.9,4.45 L-2.925,4.425 L-3.025,4.575 L-3,4.6 C-3.1,4.65 -3,4.7 -2.75,4.75 L-2.775,4.725 L-2.15,6.8 -2.25,6.9 C-2.25,7 -2.2,7.05 -2.1,7 -1.95,7.5 -1.6,8 -1.15,8.5 -1.25,8.55 -1.25,8.65 -1.1,8.7 -0.9,8.95 -0.6,9.2 -0.25,9.45 -0.1,9.5 0,9.6 0.1,9.7 0.25,9.7 0.45,9.75 0.7,9.8 0.85,9.75 1,9.7 1.25,9.7 1.7,9.45 1.85,9.1 1.7,8.6 L1.7,8.575 L2.25,8.975 L2.25,9 C2.75,9.35 3.25,9.4 3.8,9.2 L3.8,9.175 L3.925,9.075 L3.95,9.1 C4.1,8.95 4.3,8.65 4.45,8.2 4.35,7.85 4.25,7.5 4.2,7.15 4.55,7.4 5.05,7.45 5.65,7.35 6,7.2 6.25,7.05 6.5,6.8 6.55,6.65 6.6,6.5 6.65,6.35 6.6,6.15 6.5,5.9 6.45,5.65 6.2,5.2 5.95,4.85 5.7,4.65 L5.7,4.625 L5.45,4.425 5.45,4.35 C5.4,4.3 5.4,4.3 5.35,4.25 L5.25,4.225 L5.25,4.25 C5.05,4 4.9,3.7 4.85,3.4 L4.825,3.4 L4.725,2.925 4.725,2.875 4.9,2.875 L4.9,2.9 C5.35,2.8 5.7,2.75 5.95,2.7 6.25,2.55 6.45,2.3 6.5,2.05 6.45,1.9 6.45,1.75 6.5,1.7 6.45,1.4 6.35,1.15 6.1,0.9 5.9,0.65 5.35,0.55 4.4,0.65 L4.375,0.65 L4.275,0.7 4.075,-0.025 M1.575,-1.15 L1.525,-1.2 3.15,-0.8 3,-0.65 3.2,0.175 L3.2,0.2 C2.8,-0.05 2.3,-0.15 1.75,-0.15 1.6,-0.7 1.55,-1.05 1.6,-1.15z M0.125,-0.1 L-0.175,-1.2 L-0.15,-1.2 C0.3,-1.3 0.85,-1.3 1.4,-1.15 1.35,-1.05 1.4,-0.7 1.55,-0.15 1.1,-0.2 0.6,-0.15 0.15,-0.1z M3.875,-0.05 L4.025,0.55 3.475,0.275 L3.5,0.3 C3.3,0.05 3.25,-0.3 3.3,-0.65 3.5,-0.45 3.7,-0.25 3.9,-0.05z M5.85,0.85 L5.85,0.9 C6.15,1.3 6.3,1.65 6.3,1.95 6.25,1.6 6,1.45 5.6,1.45 4.95,1.4 4.55,1.3 4.3,1.1 4.85,0.95 5.35,0.85 5.75,0.9 L5.85,0.85z M6,2.35 L5.775,2.525 L5.8,2.55 C5.45,2.6 5.15,2.6 4.9,2.65 L4.575,2.725 4.425,2.725 4.475,2.825 4.15,3.05 C3.6,2.55 3.1,2.1 2.7,1.65 L4.025,1.175 4.575,1.525 L4.6,1.55 C4.75,1.5 5.05,1.5 5.5,1.55 5.95,1.65 6.1,1.9 6,2.25 L6,2.35z M6.375,6.175 L6.225,6.175 L6.25,6.2 C5.75,6.3 5.25,6.3 4.7,6.15 5.1,5.7 5.35,5.2 5.45,4.75 L5.45,4.725 L5.55,4.875 L5.55,4.9 C6,5.05 6.25,5.5 6.4,6.2z M3.8,1.05 C3.4,1.15 3,1.3 2.6,1.45 2.2,0.95 1.95,0.5 1.85,0.1 L1.825,0.075 L3.3,0.425 3.775,1.025z M0.2,0.05 C0.65,0 1.1,0 1.6,0.05 1.75,0.6 2,1.1 2.35,1.6 L2.325,1.6 L0.975,2.125 L1,2.15 C0.65,1.5 0.4,0.8 0.2,0.05z M2.55,1.8 C3,2.35 3.45,2.8 3.95,3.25 L2.275,4.175 L2.3,4.2 C1.85,3.65 1.45,3.05 1.1,2.4 L1.075,2.375 L2.525,1.8z M0.3,5.15 C-0.1,4.2 -0.4,3.5 -0.55,3 L-0.575,3 L0.825,2.425 2.025,4.2 0.3,5.15z M2.2,4.4 C2.75,5.2 3.45,5.8 4.25,6.2 L3.625,6.575 3.325,6.325 3.525,6.625 1.95,7.475 L1.95,7.5 C1.35,6.95 0.85,6.25 0.4,5.4 L2.175,4.4z M4.575,3.5 L4.225,3.25 4.525,3.075 4.525,3.45 4.575,3.5z M4.75,3.75 C4.85,4.05 5,4.3 5.2,4.55 5.2,5.1 4.95,5.6 4.45,6.05 3.7,5.7 3.05,5.1 2.45,4.35 L2.425,4.325 L4.05,3.375 4.675,3.75 4.725,3.75z M4.5,6.3 C5.1,6.5 5.7,6.55 6.35,6.4 L6.325,6.375 L6.275,6.625 L6.3,6.65 C6.15,6.9 5.85,7.1 5.4,7.15 4.75,7.2 4.3,7.1 4,6.75 L3.975,6.725 L3.925,6.725 4.5,6.3z M3.7,6.85 C3.95,7.3 4.1,7.75 4.1,8.2 4.05,8.45 3.95,8.7 3.8,8.85 3.05,8.45 2.55,8.05 2.2,7.7 L2.2,7.675 L3.625,6.825 3.675,6.825z M0.1,8.3 C-0.15,7.95 -0.55,7.25 -1.05,6.3 L-1.075,6.3 L0.2,5.55 C0.55,6.25 1.1,6.95 1.8,7.65 L1.8,7.625 L1.3,7.825 1.25,7.725 1.25,7.825 L1.25,7.85 C0.55,8.05 0.15,8.2 0.1,8.3z M1.9,7.85 C2.35,8.2 2.9,8.6 3.65,9 3.25,9.15 2.8,9.1 2.35,8.85 2.05,8.6 1.8,8.35 1.55,8.1 L1.55,8.075 L1.55,7.975 1.9,7.825z M1.35,8.225 L1.4,8.575 L1.4,8.6 C1.45,8.85 1.45,9 1.45,9.1 0.95,9 0.55,8.8 0.3,8.45 0.55,8.35 0.9,8.25 1.35,8.1 L1.35,8.075 L1.35,8.225z M1,9.5 C0.7,9.65 0.35,9.55 -0.05,9.3 L-0.775,8.6 0.05,8.5 C0.4,8.95 0.8,9.25 1.2,9.4 L1,9.5z M-0.1,-0.05 C-0.4,-0.1 -0.75,0 -1.15,0.25 L-1.15,0.225 L-1.5,-0.875 -1.25,-1 -0.475,-1.2 -0.125,-0.075z M-1.65,-0.725 L-1.4,0.425 -2.325,0.925 -2.325,-0.3 -1.65,-0.725z M-1.35,0.55 C-1.3,1.05 -1.1,1.8 -0.8,2.85 L-0.825,2.85 L-2.05,3.6 C-2.25,2.75 -2.35,1.95 -2.35,1.3 L-2.375,1.275 L-1.35,0.525z M-0.075,0.175 L0.725,2.225 -0.625,2.7 -1.15,0.525 L-1.15,0.55 C-0.7,0.3 -0.35,0.15 -0.05,0.2z M-3,0.8 C-2.95,0.45 -2.8,0.2 -2.55,-0.05 L-2.575,-0.075 L-2.575,1.15 -3.075,1.7 L-3.05,1.7 C-3.1,1.2 -3.1,0.9 -3,0.8z M-2.55,1.45 C-2.5,2.05 -2.4,2.8 -2.2,3.7 L-2.675,4.25 -3.025,2.05 -2.575,1.45z M-0.75,3.1 C-0.4,4.1 -0.15,4.85 0.05,5.3 L-1.125,6.1 -1.375,5.5 L-1.35,5.5 C-1.6,4.95 -1.85,4.4 -2,3.8 -1.65,3.55 -1.25,3.3 -0.75,3.1z M-1.475,5.95 L-1.325,6.25 -1.95,6.65 -2.575,4.55 -2.2,4 C-1.95,4.75 -1.7,5.4 -1.45,5.95z M-1,8.45 C-1.5,7.75 -1.8,7.2 -1.9,6.85 L-1.225,6.4 L-1.2,6.4 C-0.85,7.2 -0.5,7.85 -0.15,8.35 L-1.025,8.45z"/>
      </g>
    </g>
  </g>
</svg>
